X: 37
T:Dafydd Ifan Tomos
M:2/4
L:1/8
Q:220
S:Cadw Twmpath Collection
R:Polka
A:Wales
Z:brian_martin12345@yahoo.com
K:G
B,>D DG|GB Bd|ce Ac|FA DC|
B,>D DG|GB Bd|ec AF|1G2F/E/D/C/:||2G2G2||
dB BG|ec cA|AF FD|dB BG|
B,>D DG|GB Bd|ec AF|G2G2:||
